poi/svg/1502.svg

<?xml version="1.0" encoding="UTF-8" standalone="no"?>
<svg
   xmlns:dc="http://purl.org/dc/elements/1.1/"
   xmlns:cc="http://creativecommons.org/ns#"
   xmlns:rdf="http://www.w3.org/1999/02/22-rdf-syntax-ns#"
   xmlns:svg="http://www.w3.org/2000/svg"
   xmlns="http://www.w3.org/2000/svg"
   xmlns:sodipodi="http://sodipodi.sourceforge.net/DTD/sodipodi-0.dtd"
   xmlns:inkscape="http://www.inkscape.org/namespaces/inkscape"
   inkscape:version="1.0 (4035a4fb49, 2020-05-01)"
   sodipodi:docname="1502.svg"
   id="svg20"
   version="1.2"
   viewBox="0 0 42.519639 42.519639"
   height="14.999999mm"
   width="14.999999mm">
  <metadata
     id="metadata24">
    <rdf:RDF>
      <cc:Work
         rdf:about="">
        <dc:format>image/svg+xml</dc:format>
        <dc:type
           rdf:resource="http://purl.org/dc/dcmitype/StillImage" />
        <dc:title>Qt SVG Document</dc:title>
      </cc:Work>
    </rdf:RDF>
  </metadata>
  <sodipodi:namedview
     inkscape:current-layer="svg20"
     inkscape:window-maximized="0"
     inkscape:window-y="0"
     inkscape:window-x="0"
     inkscape:cy="28.346482"
     inkscape:cx="28.346482"
     inkscape:zoom="5.8410537"
     showgrid="false"
     id="namedview22"
     inkscape:window-height="480"
     inkscape:window-width="1034"
     inkscape:pageshadow="2"
     inkscape:pageopacity="0"
     guidetolerance="10"
     gridtolerance="10"
     objecttolerance="10"
     borderopacity="1"
     bordercolor="#666666"
     pagecolor="#ffffff" />
  <title
     id="title2">Qt SVG Document</title>
  <desc
     id="desc4">Generated with Qt</desc>
  <defs
     id="defs6" />
  <g
     transform="translate(5.25984,5.25984)"
     id="g18"
     stroke-linejoin="bevel"
     stroke-linecap="square"
     fill-rule="evenodd"
     stroke-width="1"
     stroke="#000000"
     fill="none">
    <g
       id="g10"
       font-style="normal"
       font-weight="400"
       font-size="7.8px"
       font-family="'MS Shell Dlg 2'"
       stroke="none"
       fill-opacity="1"
       fill="#4c62ad">
      <path
         id="path8"
         d="M 37.2598,16 C 37.2598,27.7415 27.7415,37.2598 16,37.2598 4.25851,37.2598 -5.25984,27.7415 -5.25984,16 -5.25984,4.25851 4.25851,-5.25984 16,-5.25984 27.7415,-5.25984 37.2598,4.25851 37.2598,16"
         fill-rule="evenodd"
         vector-effect="non-scaling-stroke" />
    </g>
    <g
       id="g14"
       font-style="normal"
       font-weight="400"
       font-size="7.8px"
       font-family="'MS Shell Dlg 2'"
       transform="translate(16,12.0315)"
       stroke="none"
       fill-opacity="0.94902"
       fill="#ffffff">
      <path
         id="path12"
         d="m 0.26416,-0.887207 c -0.909831,0 -1.70418,-0.328943 -2.38306,-0.986813 -0.67887,-0.65788 -1.01831,-1.46273 -1.01831,-2.41455 0,-0.96582 0.33944,-1.79167 1.01831,-2.47754 0.67888,-0.68588 1.473229,-1.02881 2.38306,-1.02881 0.97982,0 1.81266,0.34293 2.49854,1.02881 0.68587,0.68587 1.0288,1.51172 1.0288,2.47754 0,0.95182 -0.34293,1.75667 -1.0288,2.41455 -0.68588,0.65787 -1.51872,0.986813 -2.49854,0.986813 M -2.86426,-4.05762 c 0,0.48991 0.014,0.64738 0.04199,0.47241 0.028,-0.17496 0.13298,-0.45491 0.31495,-0.83984 0.18196,-0.38493 0.4899,-0.78035 0.92382,-1.18628 0.43392,-0.40592 1.049809,-0.60888 1.84766,-0.60888 0.82585,0 1.46273,0.20296 1.91064,0.60888 0.44792,0.40593 0.76636,0.80135 0.95533,1.18628 0.18896,0.38493 0.29044,0.66488 0.30444,0.83984 0.014,0.17497 0.021,0.0175 0.021,-0.47241 0,-0.95182 -0.30795,-1.75667 -0.92383,-2.41455 -0.61589,-0.65788 -1.37175,-0.98681 -2.26758,-0.98681 -0.853841,0 -1.5887,0.32893 -2.20459,0.98681 -0.61589,0.65788 -0.92383,1.46273 -0.92383,2.41455 M -8.89014,11.3325 c -0.57389,0 -1.0393,-0.1854 -1.39626,-0.5564 -0.3569,-0.3709 -0.5354,-0.82932 -0.5354,-1.37522 0,-0.46192 0.112,-0.85384 0.336,-1.17578 l 5.08101,-6.90772 c 0.13998,-0.23795 0.32194,-0.454913 0.5459,-0.650876 0.20996,-0.139974 0.45142,-0.283447 0.72437,-0.43042 0.27295,-0.1469727 0.60539,-0.2344564 0.99731,-0.2624512 H 3.70752 C 4.08545,0.0016276 4.41439,0.0891113 4.69434,0.236084 4.97428,0.383057 5.20524,0.52653 5.38721,0.666504 5.58317,0.862467 5.75114,1.07943 5.89111,1.31738 L 10.9722,8.2251 c 0.2239,0.32194 0.3359,0.71386 0.3359,1.17578 0,0.5459 -0.1855,1.00432 -0.5564,1.37522 -0.3709,0.371 -0.82934,0.5564 -1.37524,0.5564 -0.13997,0 -0.25895,-0.014 -0.35693,-0.042 -0.09798,-0.028 -0.22396,-0.07 -0.37793,-0.1259 L 5.55518,10.3457 v 2.0576 H -5.06885 v -2.0576 l -3.08642,0.8189 c -0.15397,0.0559 -0.27995,0.0979 -0.37793,0.1259 -0.09798,0.028 -0.21696,0.042 -0.35694,0.042 m 3.21241,-9.0283 0.60888,4.07324 0.33594,-0.08398 c 0.69987,-0.19597 1.27726,-0.15747 1.73218,0.11548 0.45491,0.27294 0.74886,0.63688 0.88183,1.09179 0.13298,0.45492 0.08399,0.92033 -0.14697,1.39624 -0.23096,0.47591 -0.68937,0.81185 -1.37524,1.00782 H -3.7251 L 0.26416,11.2485 4.21143,9.90479 H 4.12744 C 3.44157,9.70882 2.98315,9.37288 2.7522,8.89697 2.52124,8.42106 2.47225,7.95565 2.60522,7.50073 2.7382,7.04582 3.03215,6.68188 3.48706,6.40894 3.94198,6.13599 4.51937,6.09749 5.21924,6.29346 L 5.55518,6.37744 6.12207,2.3042 0.26416,4.06787 -5.67773,2.3042 M 10.9722,13.3481 c 0.3499,0 0.5249,0.329 0.5249,0.9869 0,0.2939 -0.0455,0.5319 -0.1365,0.7138 -0.091,0.182 -0.2205,0.273 -0.3884,0.273 h -21.458 c -0.14,0 -0.2625,-0.091 -0.3675,-0.273 -0.105,-0.1819 -0.1574,-0.4199 -0.1574,-0.7138 0,-0.308 0.0524,-0.5494 0.1574,-0.7244 0.105,-0.175 0.2275,-0.2625 0.3675,-0.2625 h 21.458"
         fill-rule="evenodd"
         vector-effect="none" />
    </g>
    <g
       id="g16"
       font-style="normal"
       font-weight="400"
       font-size="7.8px"
       font-family="'MS Shell Dlg 2'"
       stroke="none"
       fill-opacity="1"
       fill="#4c62ad" />
  </g>
</svg>

<?xml version="1.0" encoding="UTF-8" standalone="no"?>
<svg width="11.2889mm" height="11.2889mm"
 viewBox="0 0 32 32"
 xmlns="http://www.w3.org/2000/svg" xmlns:xlink="http://www.w3.org/1999/xlink"  version="1.2" baseProfile="tiny">
<title>Qt SVG Document</title>
<desc>Generated with Qt</desc>
<defs>
</defs>
<g fill="none" stroke="black" stroke-width="1" fill-rule="evenodd" stroke-linecap="square" stroke-linejoin="bevel" >

<g fill="#4c62ad" fill-opacity="1" stroke="none" transform="matrix(1,0,0,1,0,0)"
font-family="MS Shell Dlg 2" font-size="7.8" font-weight="400" font-style="normal" 
>
<path vector-effect="non-scaling-stroke" fill-rule="evenodd" d="M37.2598,16 C37.2598,27.7415 27.7415,37.2598 16,37.2598 C4.25851,37.2598 -5.25984,27.7415 -5.25984,16 C-5.25984,4.25851 4.25851,-5.25984 16,-5.25984 C27.7415,-5.25984 37.2598,4.25851 37.2598,16 "/>
</g>

<g fill="#ffffff" fill-opacity="0.94902" stroke="none" transform="matrix(1,0,0,1,16,12.0315)"
font-family="MS Shell Dlg 2" font-size="7.8" font-weight="400" font-style="normal" 
>
<path vector-effect="none" fill-rule="evenodd" d="M0.26416,-0.887207 C-0.645671,-0.887207 -1.44002,-1.21615 -2.1189,-1.87402 C-2.79777,-2.5319 -3.13721,-3.33675 -3.13721,-4.28857 C-3.13721,-5.25439 -2.79777,-6.08024 -2.1189,-6.76611 C-1.44002,-7.45199 -0.645671,-7.79492 0.26416,-7.79492 C1.24398,-7.79492 2.07682,-7.45199 2.7627,-6.76611 C3.44857,-6.08024 3.7915,-5.25439 3.7915,-4.28857 C3.7915,-3.33675 3.44857,-2.5319 2.7627,-1.87402 C2.07682,-1.21615 1.24398,-0.887207 0.26416,-0.887207 M-2.86426,-4.05762 C-2.86426,-3.56771 -2.85026,-3.41024 -2.82227,-3.58521 C-2.79427,-3.76017 -2.68929,-4.04012 -2.50732,-4.42505 C-2.32536,-4.80998 -2.01742,-5.2054 -1.5835,-5.61133 C-1.14958,-6.01725 -0.533691,-6.22021 0.26416,-6.22021 C1.09001,-6.22021 1.72689,-6.01725 2.1748,-5.61133 C2.62272,-5.2054 2.94116,-4.80998 3.13013,-4.42505 C3.31909,-4.04012 3.42057,-3.76017 3.43457,-3.58521 C3.44857,-3.41024 3.45557,-3.56771 3.45557,-4.05762 C3.45557,-5.00944 3.14762,-5.81429 2.53174,-6.47217 C1.91585,-7.13005 1.15999,-7.45898 0.26416,-7.45898 C-0.589681,-7.45898 -1.32454,-7.13005 -1.94043,-6.47217 C-2.55632,-5.81429 -2.86426,-5.00944 -2.86426,-4.05762 M-8.89014,11.3325 C-9.46403,11.3325 -9.92944,11.1471 -10.2864,10.7761 C-10.6433,10.4052 -10.8218,9.94678 -10.8218,9.40088 C-10.8218,8.93896 -10.7098,8.54704 -10.4858,8.2251 L-5.40479,1.31738 C-5.26481,1.07943 -5.08285,0.862467 -4.85889,0.666504 C-4.64893,0.52653 -4.40747,0.383057 -4.13452,0.236084 C-3.86157,0.0891113 -3.52913,0.0016276 -3.13721,-0.0263672 L3.70752,-0.0263672 C4.08545,0.0016276 4.41439,0.0891113 4.69434,0.236084 C4.97428,0.383057 5.20524,0.52653 5.38721,0.666504 C5.58317,0.862467 5.75114,1.07943 5.89111,1.31738 L10.9722,8.2251 C11.1961,8.54704 11.3081,8.93896 11.3081,9.40088 C11.3081,9.94678 11.1226,10.4052 10.7517,10.7761 C10.3808,11.1471 9.92236,11.3325 9.37646,11.3325 C9.23649,11.3325 9.11751,11.3185 9.01953,11.2905 C8.92155,11.2625 8.79557,11.2205 8.6416,11.1646 L5.55518,10.3457 L5.55518,12.4033 L-5.06885,12.4033 L-5.06885,10.3457 L-8.15527,11.1646 C-8.30924,11.2205 -8.43522,11.2625 -8.5332,11.2905 C-8.63118,11.3185 -8.75016,11.3325 -8.89014,11.3325 M-5.67773,2.3042 L-5.06885,6.37744 L-4.73291,6.29346 C-4.03304,6.09749 -3.45565,6.13599 -3.00073,6.40894 C-2.54582,6.68188 -2.25187,7.04582 -2.1189,7.50073 C-1.98592,7.95565 -2.03491,8.42106 -2.26587,8.89697 C-2.49683,9.37288 -2.95524,9.70882 -3.64111,9.90479 L-3.7251,9.90479 L0.26416,11.2485 L4.21143,9.90479 L4.12744,9.90479 C3.44157,9.70882 2.98315,9.37288 2.7522,8.89697 C2.52124,8.42106 2.47225,7.95565 2.60522,7.50073 C2.7382,7.04582 3.03215,6.68188 3.48706,6.40894 C3.94198,6.13599 4.51937,6.09749 5.21924,6.29346 L5.55518,6.37744 L6.12207,2.3042 L0.26416,4.06787 L-5.67773,2.3042 M10.9722,13.3481 C11.3221,13.3481 11.4971,13.6771 11.4971,14.335 C11.4971,14.6289 11.4516,14.8669 11.3606,15.0488 C11.2696,15.2308 11.1401,15.3218 10.9722,15.3218 L-10.4858,15.3218 C-10.6258,15.3218 -10.7483,15.2308 -10.8533,15.0488 C-10.9583,14.8669 -11.0107,14.6289 -11.0107,14.335 C-11.0107,14.027 -10.9583,13.7856 -10.8533,13.6106 C-10.7483,13.4356 -10.6258,13.3481 -10.4858,13.3481 L10.9722,13.3481"/>
</g>

<g fill="#4c62ad" fill-opacity="1" stroke="none" transform="matrix(1,0,0,1,0,0)"
font-family="MS Shell Dlg 2" font-size="7.8" font-weight="400" font-style="normal" 
>
</g>
</g>
</svg>
